packages/larva-svg/src/icons/chat.svg

<?xml version="1.0" encoding="UTF-8"?>
<svg width="27px" height="24px" viewBox="0 0 27 24" version="1.1" xmlns="http://www.w3.org/2000/svg" xmlns:xlink="http://www.w3.org/1999/xlink">
    <!-- Generator: Sketch 53 (72520) - https://sketchapp.com -->
    <title>Icon / Chat</title>
    <desc>Created with Sketch.</desc>
    <g id="Style-Guide" stroke="none" stroke-width="1" fill="none" fill-rule="evenodd">
        <g id="Style-guide" transform="translate(-1094.000000, -1429.000000)" fill="#000000">
            <g id="Icon-/-Chat" transform="translate(1094.000000, 1429.000000)">
                <g id="Chat-Icon">
                    <path d="M-8.63309424e-13,8.30386667 C0.0769131514,7.88126061 0.128866005,7.45004848 0.235012407,7.03762424 C0.729736973,5.11580606 1.78932506,3.67847273 3.17407444,2.54968485 C4.85037469,1.1832 6.73401737,0.446836364 8.75851117,0.175139394 C10.8835236,-0.110012121 12.9693499,0.0883515152 14.995928,0.910593939 C16.8767047,1.67362424 18.5254913,2.83932121 19.7321836,4.73453333 C21.4612705,7.4501697 21.3496005,10.9216242 19.4700223,13.5005939 C18.0768834,15.4120485 16.2720298,16.5333818 14.2371141,17.2012606 C12.2087643,17.8670182 10.148732,17.9301091 8.0719206,17.5518061 C7.95092308,17.5297455 7.79292804,17.568897 7.69147146,17.6478061 C6.12454839,18.8671394 4.41364764,19.6501697 2.54996278,19.9834424 C2.32104715,20.0243515 2.12970223,19.9584727 2.00609926,19.7306545 C1.87426303,19.4876848 1.86639454,19.2260485 2.03251861,18.9981091 C2.29619107,18.6364121 2.57554839,18.2901697 2.84271216,17.9318061 C3.29960546,17.3191394 3.70115881,16.6651394 3.94549876,15.8556242 C3.8452928,15.7832 3.73706203,15.7066545 3.63029032,15.6274424 C2.26221588,14.612897 1.13582382,13.3329576 0.49191067,11.573503 C0.277585608,10.9878667 0.19217866,10.3383515 0.0477841191,9.71804848 C0.0320992556,9.65065455 0.0159454094,9.58332121 -8.63309424e-13,9.51598788 L-8.63309424e-13,8.30386667 Z M26.1428571,13.620828 C26.099949,13.893648 26.0638776,14.168268 26.0129592,14.439048 C25.6895408,16.158768 24.8678571,17.518368 23.7591837,18.650808 C23.3059184,19.113828 22.800102,19.505808 22.2712755,19.971408 C22.4371939,20.329068 22.5856122,20.758368 22.8140816,21.117288 C23.2003061,21.723948 23.6422959,22.281168 24.0489286,22.870548 C24.1462245,23.011548 24.2419388,23.190768 24.2596429,23.363568 C24.3008163,23.764188 24.0076531,24.054588 23.6528571,23.991348 C21.8891327,23.677008 20.2571939,22.949988 18.7715816,21.788328 C18.5437755,21.610128 18.3405612,21.546948 18.0679082,21.598308 C16.1472449,21.960228 14.2394388,21.867708 12.3547449,21.294708 C11.1964286,20.942508 10.1089286,20.389968 9.03862245,19.568328 C9.20515306,19.568328 9.30637755,19.561308 9.40673469,19.569408 C11.180051,19.712628 12.9219388,19.485768 14.6229592,18.894468 C17.0671939,18.044688 19.2064796,16.612068 20.7697449,14.181228 C22.2847449,11.825508 22.7789286,9.200928 22.1378571,6.314868 C22.1271939,6.266808 22.1183163,6.217908 22.1128061,6.168768 C22.1108673,6.151428 22.1215306,6.132168 22.1468367,6.037428 C22.6506633,6.462048 23.1610204,6.838668 23.6193367,7.288548 C24.8736735,8.519928 25.7763265,10.020408 26.0667857,11.957508 C26.09,12.112368 26.117398,12.266388 26.1428571,12.420828 L26.1428571,13.620828 Z" id="Combined-Shape"></path>
                </g>
            </g>
        </g>
    </g>
</svg>

<svg width="27" height="24" xmlns="http://www.w3.org/2000/svg"><path d="M0 8.304c.077-.423.129-.854.235-1.266.495-1.922 1.554-3.36 2.94-4.488C4.85 1.183 6.733.447 8.758.175c2.125-.285 4.21-.087 6.237.736 1.88.763 3.53 1.928 4.736 3.824a7.777 7.777 0 0 1-.262 8.766c-1.393 1.911-3.198 3.032-5.233 3.7-2.028.666-4.088.73-6.165.35a.519.519 0 0 0-.38.097c-1.567 1.22-3.278 2.002-5.142 2.335-.229.041-.42-.025-.544-.252-.132-.243-.14-.505.027-.733.263-.362.543-.708.81-1.066.457-.613.858-1.267 1.102-2.076l-.315-.229c-1.368-1.014-2.494-2.294-3.138-4.053-.214-.586-.3-1.236-.444-1.856L0 9.516V8.304zm26.143 5.317c-.043.273-.08.547-.13.818-.323 1.72-1.145 3.08-2.254 4.212-.453.463-.959.855-1.488 1.32.166.358.315.787.543 1.146.386.607.828 1.164 1.235 1.754.097.14.193.32.21.493.042.4-.251.69-.606.627-1.764-.314-3.396-1.041-4.881-2.203-.228-.178-.431-.241-.704-.19-1.92.362-3.829.27-5.713-.303a10.272 10.272 0 0 1-3.316-1.727c.166 0 .267-.007.368.001a12.638 12.638 0 0 0 5.216-.675c2.444-.85 4.583-2.282 6.147-4.713 1.515-2.355 2.009-4.98 1.368-7.866a1.393 1.393 0 0 1-.025-.146c-.002-.018.009-.037.034-.132.504.425 1.014.802 1.472 1.252 1.255 1.23 2.157 2.731 2.448 4.669.023.154.05.308.076.463v1.2z" fill="#000" fill-rule="evenodd"/></svg>
